X: 330
T: Highland Lass
%R: minuet
B: "The Compleat Country Dancing-Master" printed by John Walsh, London ca. 1740
S: 6: CCDM2 http://imslp.org/wiki/The_Compleat_Country_Dancing-Master_(Various) V.2 (118)
Z: 2013 John Chambers <jc:trillian.mit.edu>
M: 3/2
L: 1/8
K: Bb
% - - - - - - - - - - - - - - - - - - - - - - - - -
[|\
f4 d4 (ga) (gf) | g2 b4 d2 c2B2 |\
f2d2 c3A GAB2 | ABc2 f2A2 G2F2 |]\
D2F2 Bcd2 G4 | g3g f2e2 d2c2 |
A2c2 fga2 d2a2 | b3a gab2 g2f2 |\
b2a2 g2f2 b2d2 | gfed c2B2 c2F2 |\
GAB2 ABc2 def2 | g3f e2d2 c2B2 |]
% - - - - - - - - - - - - - - - - - - - - - - - - -
%%begintext align
%% The 1st Cu. cross over and the 2d Cu. cast off .|
%% Then change Places across :| Then cast up in
%% your own Places and Back to Back .| Then right
%% and left and turn :|
%%endtext
%%sep 1 8 500

%%sep 1 1 500
%%sep 1 1 500
